Adwaita++-Light/panel/24/network-wireless-secure-signal-none.svg

<svg height="24" width="24" xmlns="http://www.w3.org/2000/svg">
  <g fill="#444">
    <path d="m17 13c-1.108 0-2 .9109-2 2.03125v.96875h-1v4h6v-4h-1v-.96875c0-1.1199-.892-2.03125-2-2.03125zm0 1c.554 0 1 .4424 1 1v1h-2v-1c0-.5576.446-1 1-1z"/>
    <path d="m12 5c-3.0506 0-5.9194 1.0732-8 3l8 11 1-1.375v-2.625h1.013672c.019649-1.634908 1.342485-3 2.986328-3 .02882 0 .05537.0089.08398.0098l2.91602-4.0098c-2.081-1.9269-4.949-3-8-3z" opacity=".3"/>
  </g>
</svg>

<svg xmlns="http://www.w3.org/2000/svg" width="24" height="24" version="1.1">
 <defs>
  <style id="current-color-scheme" type="text/css">
   .ColorScheme-Text { color:#444444; } .ColorScheme-Highlight { color:#4285f4; }
  </style>
 </defs>
 <path style="fill:currentColor" class="ColorScheme-Text" d="m 17,13 c -1.108,0 -2,0.9109 -2,2.03125 V 16 h -1 v 4 h 6 V 16 H 19 V 15.03125 C 19,13.91135 18.108,13 17,13 Z m 0,1 c 0.554,0 1,0.4424 1,1 v 1 h -2 v -1 c 0,-0.5576 0.446,-1 1,-1 z"/>
 <path style="opacity:0.3;fill:currentColor" class="ColorScheme-Text" d="M 12,5 C 8.9494,5 6.0806,6.0732 4,8 l 8,11 1,-1.375 V 15 h 1.013672 C 14.033321,13.365092 15.356157,12 17,12 c 0.02882,0 0.05537,0.0089 0.08398,0.0098 L 20,8 C 17.919,6.0731 15.051,5 12,5 Z"/>
</svg>
